docs/img/svg/message.svg

<svg xmlns="http://www.w3.org/2000/svg" preserveAspectRatio="xMidYMid" width="16" height="16" viewBox="0 0 16 16"><defs><style>.cls-1{fill:#888;fill-rule:evenodd}</style></defs><path d="M15.899 10.113c-.053.153-.13.301-.229.441-.368.524-.887.876-1.517.876H7.799c-.242.399-.858 1.323-2.514 3.926a1.383 1.383 0 0 1-1.561.589c-.589-.174-1.125-.728-1.125-1.347l-.004-3.203c-.142 0-.142-.001-.194-.002h-.205c-.354 0-.491-.005-.608-.024C.832 11.252.214 10.631.05 9.871c-.025-.117-.026-.142-.035-.553l-.006-.291-.008-.024V1.575l.066-.185.007-.019C.261.704.745.249 1.409.063L1.454.05l.027-.008.151-.043h12.774l.147.041.024.006c.637.155 1.084.547 1.316 1.166.037.097.056.18.069.234l.037.143v8.382l-.1.142zm-.991-8.377c-.011-.041-.018-.083-.033-.122a.757.757 0 0 0-.57-.499l-.051-.015H1.789a2.35 2.35 0 0 1-.079.023.758.758 0 0 0-.563.582c-.006.023-.016.045-.024.068V8.87c.008.022.019.8.024.824.065.3.31.54.611.587.06.009.268.01.438.01h.226c.134.003.626.003.759.006a.56.56 0 0 1 .533.428c.004.015.006 2.468.008 3.872 0 .12.079.226.193.26.025.007.174.011.199.011.09 0 .176-.046.226-.125.854-1.342 2.524-3.909 2.618-4.104a.558.558 0 0 1 .54-.342h3.361l3.294-.001a.74.74 0 0 0 .633-.334.603.603 0 0 0 .112-.274c.001-.005.006-.009.01-.014V1.736zm-3.117 4.81c-.62 0-1.123-.508-1.123-1.134 0-.626.503-1.133 1.123-1.133s1.123.507 1.123 1.133-.503 1.134-1.123 1.134zm-3.742 0c-.62 0-1.123-.508-1.123-1.134 0-.626.503-1.133 1.123-1.133s1.122.507 1.122 1.133-.502 1.134-1.122 1.134zm-3.742 0c-.62 0-1.123-.508-1.123-1.134 0-.626.503-1.133 1.123-1.133s1.122.507 1.122 1.133-.502 1.134-1.122 1.134z" class="cls-1"/></svg>

<svg xmlns="http://www.w3.org/2000/svg" xmlns:xlink="http://www.w3.org/1999/xlink" preserveAspectRatio="xMidYMid" width="16" height="16" viewBox="0 0 16 16">
  <defs>
    <style>
      .cls-1 {
        fill: #888;
        fill-rule: evenodd;
      }
    </style>
  </defs>
  <path d="M15.899,10.113 C15.846,10.266 15.769,10.414 15.670,10.554 C15.302,11.078 14.783,11.430 14.153,11.430 L10.859,11.430 L7.799,11.430 C7.557,11.829 6.941,12.753 5.285,15.356 C5.028,15.760 4.590,16.001 4.114,16.001 C3.982,16.001 3.851,15.982 3.724,15.945 C3.135,15.771 2.599,15.217 2.599,14.598 C2.598,13.141 2.596,12.056 2.595,11.395 C2.453,11.395 2.453,11.394 2.401,11.393 L2.340,11.393 L2.279,11.393 L2.196,11.393 C1.842,11.393 1.705,11.388 1.588,11.369 C0.832,11.252 0.214,10.631 0.050,9.871 C0.025,9.754 0.024,9.729 0.015,9.318 C0.013,9.218 0.011,9.111 0.009,9.027 L0.001,9.003 L0.001,8.806 L0.001,1.773 L0.001,1.575 L0.067,1.390 L0.074,1.371 C0.261,0.704 0.745,0.249 1.409,0.063 L1.454,0.050 L1.481,0.042 L1.632,-0.001 L1.789,-0.001 L14.254,-0.001 L14.406,-0.001 L14.553,0.040 L14.577,0.046 C15.214,0.201 15.661,0.593 15.893,1.212 C15.930,1.309 15.949,1.392 15.962,1.446 L15.999,1.589 L15.999,1.736 L15.999,9.611 L15.999,9.971 L15.899,10.113 ZM14.908,1.736 C14.897,1.695 14.890,1.653 14.875,1.614 C14.774,1.345 14.583,1.179 14.305,1.115 C14.288,1.111 14.271,1.105 14.254,1.100 C10.047,1.100 5.996,1.100 1.789,1.100 C1.763,1.108 1.736,1.116 1.710,1.123 C1.410,1.207 1.224,1.402 1.147,1.705 C1.141,1.728 1.131,1.750 1.123,1.773 C1.123,4.369 1.123,6.273 1.123,8.870 C1.131,8.892 1.142,9.670 1.147,9.694 C1.212,9.994 1.457,10.234 1.758,10.281 C1.818,10.290 2.026,10.291 2.196,10.291 C2.250,10.291 2.300,10.291 2.340,10.291 C2.377,10.291 2.405,10.291 2.422,10.291 C2.556,10.294 3.048,10.294 3.181,10.297 C3.438,10.304 3.652,10.476 3.714,10.725 C3.718,10.740 3.720,13.193 3.722,14.597 C3.722,14.717 3.801,14.823 3.915,14.857 C3.940,14.864 4.089,14.868 4.114,14.868 C4.204,14.868 4.290,14.822 4.340,14.743 C5.194,13.401 6.864,10.834 6.958,10.639 C7.069,10.411 7.246,10.297 7.498,10.297 C8.618,10.297 9.739,10.297 10.859,10.297 C12.009,10.297 13.004,10.297 14.153,10.296 C14.421,10.296 14.631,10.181 14.786,9.962 C14.843,9.880 14.886,9.790 14.898,9.688 C14.899,9.683 14.904,9.679 14.908,9.674 C14.908,7.049 14.908,4.361 14.908,1.736 ZM11.791,6.546 C11.171,6.546 10.668,6.038 10.668,5.412 C10.668,4.786 11.171,4.279 11.791,4.279 C12.411,4.279 12.914,4.786 12.914,5.412 C12.914,6.038 12.411,6.546 11.791,6.546 ZM8.049,6.546 C7.429,6.546 6.926,6.038 6.926,5.412 C6.926,4.786 7.429,4.279 8.049,4.279 C8.669,4.279 9.171,4.786 9.171,5.412 C9.171,6.038 8.669,6.546 8.049,6.546 ZM4.307,6.546 C3.687,6.546 3.184,6.038 3.184,5.412 C3.184,4.786 3.687,4.279 4.307,4.279 C4.927,4.279 5.429,4.786 5.429,5.412 C5.429,6.038 4.927,6.546 4.307,6.546 Z" class="cls-1"/>
</svg>
